src/icons/svg/Help.svg

<!-- Generated by IcoMoon.io -->
<svg version="1.1" xmlns="http://www.w3.org/2000/svg" width="24" height="24" viewBox="0 0 24 24">
<title>help</title>
<path fill="#c1c6cc" d="M19 2h-14c-1.11 0-2 0.9-2 2v14c0 1.1 0.89 2 2 2h4l3 3 3-3h4c1.1 0 2-0.9 2-2v-14c0-1.1-0.9-2-2-2zM19 18h-4.83l-2.17 2.17-2.17-2.17h-4.83v-14h14v14z"></path>
<path fill="#c1c6cc" d="M13 15h-2v2h2v-2z"></path>
<path fill="#c1c6cc" d="M12 7c1.1 0 2 0.9 2 2 0 2-3 1.75-3 5h2c0-2.25 3-2.5 3-5 0-2.21-1.79-4-4-4s-4 1.79-4 4h2c0-1.1 0.9-2 2-2z"></path>
</svg>

<svg width="24" height="24" viewBox="0 0 24 24" fill="none" xmlns="http://www.w3.org/2000/svg">
<path d="M19 2H5C3.89 2 3 2.9 3 4V18C3 19.1 3.89 20 5 20H9L12 23L15 20H19C20.1 20 21 19.1 21 18V4C21 2.9 20.1 2 19 2ZM19 18H14.17L12 20.17L9.83 18H5V4H19V18Z" fill="#1C2125"/>
<path d="M13 15H11V17H13V15Z" fill="#1C2125"/>
<path d="M12 7C13.1 7 14 7.9 14 9C14 11 11 10.75 11 14H13C13 11.75 16 11.5 16 9C16 6.79 14.21 5 12 5C9.79 5 8 6.79 8 9H10C10 7.9 10.9 7 12 7Z" fill="#1C2125"/>
</svg>
